; generated by PrusaSlicer 2.2.0+ on 2020-07-15 at 16:33:53 UTC

; 

; external perimeters extrusion width = 0.45mm
; perimeters extrusion width = 0.45mm
; infill extrusion width = 0.45mm
; solid infill extrusion width = 0.45mm
; top infill extrusion width = 0.40mm
; first layer extrusion width = 0.42mm

M73 P0 R163
M73 Q0 S169
M201 X1000 Y1000 Z200 E5000 ; sets maximum accelerations, mm/sec^2
M203 X200 Y200 Z12 E120 ; sets maximum feedrates, mm/sec
M204 P1250 R1250 T1250 ; sets acceleration (P, T) and retract acceleration (R), mm/sec^2
M205 X8.00 Y8.00 Z0.40 E4.50 ; sets the jerk limits, mm/sec
M205 S0 T0 ; sets the minimum extruding and travel feed rate, mm/sec
M107
M862.3 P "MK3" ; printer model check
M862.1 P0.4 ; nozzle diameter check
M115 U3.9.0 ; tell printer latest fw version
G90 ; use absolute coordinates
M83 ; extruder relative mode
M104 S225 ; set extruder temp
M140 S60 ; set bed temp
M190 S60 ; wait for bed temp
M109 S225 ; wait for extruder temp
G28 W ; home all without mesh bed level
G80 ; mesh bed leveling
G1 Y-3.0 F1000.0 ; go outside print area
G92 E0.0
G1 X60.0 E9.0 F1000.0 ; intro line
M73 Q0 S169
M73 P0 R163
G1 X100.0 E12.5 F1000.0 ; intro line
G92 E0.0
M221 S95
G21 ; set units to millimeters
G90 ; use absolute coordinates
M83 ; use relative distances for extrusion
M900 K0.06 ; Filament gcode LA 1.5
M900 K30 ; Filament gcode LA 1.0
;BEFORE_LAYER_CHANGE
G92 E0.0
;0.2


G1 E-0.80000 F2100.00000
G1 Z0.600 F10800.000
;AFTER_LAYER_CHANGE
;0.2
G1 X55.068 Y47.996
G1 Z0.200
G1 E0.80000 F2100.00000
M204 S1000
G1 F1200.000
G1 X55.681 Y47.301 E0.02907
G1 X56.514 Y46.893 E0.02907
G1 X57.105 Y46.813 E0.01870
G1 X66.093 Y46.813 E0.28181
G1 X67.513 Y46.973 E0.04481
G1 X108.559 Y56.082 E1.31829
G1 X110.456 Y56.610 E0.06173
G1 X112.325 Y57.359 E0.06312
G1 X114.042 Y58.272 E0.06098
G1 X115.596 Y59.324 E0.05883
G1 X168.171 Y96.011 E2.01012
G1 X168.766 Y96.621 E0.02673
G1 X194.886 Y135.591 E1.47097
G1 X195.168 Y136.230 E0.02190
G1 X195.253 Y136.923 E0.02190
G1 X195.132 Y137.611 E0.02190
G1 X194.814 Y138.237 E0.02201
G1 X175.653 Y157.356 E0.84871
G1 X173.909 Y158.809 E0.07117
G1 X172.112 Y160.018 E0.06790
G1 X169.973 Y161.159 E0.07601
G1 X167.767 Y162.036 E0.07446
G1 X165.687 Y162.628 E0.06778
G1 X163.563 Y163.007 E0.06766
G1 X161.180 Y163.186 E0.07494
G1 X158.890 Y163.112 E0.07184
G1 X156.519 Y162.776 E0.07505
G1 X154.421 Y162.258 E0.06778
G1 X152.385 Y161.531 E0.06778
G1 X150.224 Y160.501 E0.07505
G1 X148.251 Y159.284 E0.07268
G1 X146.439 Y157.882 E0.07184
G1 X144.284 Y155.754 E0.09495
G1 X55.307 Y50.724 E4.31601
G1 X55.015 Y50.288 E0.01645
G1 X54.826 Y49.799 E0.01645
G1 X54.768 Y48.873 E0.02907
G1 X55.049 Y48.053 E0.02719
G1 F8640.000
G1 X55.681 Y47.301 E-0.22696
G1 X56.514 Y46.893 E-0.21410
G1 X57.105 Y46.813 E-0.13772
G1 X57.890 Y46.813 E-0.18122
G1 E-0.04000 F2100.00000
G1 Z0.800 F10800.000
G1 X110.651 Y107.102
G1 Z0.200
G1 E0.80000 F2100.00000
G1 F1200.000
G1 X133.963 Y86.411 E0.97731
G1 X165.042 Y121.427 E1.46801
G1 X141.731 Y142.118 E0.97731
G1 X110.690 Y107.147 E1.46613
G1 X110.332 Y106.860 F10800.000
G1 F8640.000
G1 X113.148 Y104.957 E-0.76000
G1 E-0.04000 F2100.00000
G1 Z0.800 F10800.000
G1 X141.920 Y143.689
G1 Z0.200
G1 E0.80000 F2100.00000
G1 F1200.000
G1 X142.449 Y143.102 E0.02478
G1 X143.168 Y142.421 E0.03106
G1 X158.585 Y128.736 E0.64637
G1 X160.224 Y128.004 E0.05627
G1 X161.899 Y127.479 E0.05503
G1 X163.623 Y127.152 E0.05503
G1 X165.374 Y127.028 E0.05503
G1 X167.128 Y127.107 E0.05503
G1 X168.860 Y127.390 E0.05503
G1 X170.548 Y127.872 E0.05503
G1 X172.168 Y128.547 E0.05503
G1 X173.699 Y129.405 E0.05503
G1 X175.120 Y130.436 E0.05503
G1 X176.412 Y131.624 E0.05503
G1 X177.557 Y132.954 E0.05503
G1 X178.540 Y134.409 E0.05503
G1 X179.359 Y135.991 E0.05586
G1 X179.788 Y137.783 E0.05779
G1 X180.000 Y139.588 E0.05698
G1 X180.000 Y141.405 E0.05698
G1 X179.787 Y143.211 E0.05703
G1 X179.559 Y144.101 E0.02880
G1 X179.269 Y144.952 E0.02821
G1 X178.677 Y146.843 E0.06211
G1 X177.804 Y148.642 E0.06270
G1 X176.727 Y150.323 E0.06260
G1 X175.468 Y151.872 E0.06258
G1 X174.045 Y153.271 E0.06258
G1 X172.475 Y154.503 E0.06258
G1 X170.776 Y155.551 E0.06258
G1 X168.972 Y156.404 E0.06258
G1 X167.083 Y157.049 E0.06258
G1 X165.135 Y157.480 E0.06258
G1 X163.150 Y157.691 E0.06258
G1 X161.154 Y157.679 E0.06258
G1 X159.172 Y157.444 E0.06258
G1 X157.229 Y156.990 E0.06258
G1 X155.348 Y156.321 E0.06258
G1 X153.554 Y155.447 E0.06258
G1 X151.869 Y154.378 E0.06258
G1 X150.312 Y153.126 E0.06262
G1 X149.611 Y152.403 E0.03158
G1 X148.981 Y151.645 E0.03092
G1 X141.960 Y143.734 E0.33164
G1 X141.633 Y143.410 F10800.000
G1 F8640.000
G1 X142.449 Y143.102 E-0.18456
G1 X143.168 Y142.421 E-0.22875
G1 X144.291 Y141.424 E-0.34669
G1 E-0.04000 F2100.00000
G1 Z0.800 F10800.000
G1 X185.373 Y136.082
G1 Z0.200
G1 E0.80000 F2100.00000
G1 F1200.000
G1 X186.477 Y136.257 E0.03506
G1 X189.725 Y136.859 E0.10357
G1 X190.905 Y137.118 E0.03786
G1 X191.247 Y137.161 E0.01082
G1 X190.855 Y137.394 E0.01430
G1 X189.170 Y138.508 E0.06332
G1 X186.335 Y140.303 E0.10522
G1 X186.670 Y139.528 E0.02647
G1 X186.779 Y138.701 E0.02614
G1 X186.670 Y137.875 E0.02614
G1 X186.351 Y137.104 E0.02614
G1 X185.843 Y136.443 E0.02614
G1 X185.421 Y136.119 E0.01670
G1 X184.992 Y136.265 F10800.000
G1 F1200.000
G1 X185.574 Y136.712 E0.02303
G1 X186.022 Y137.295 E0.02303
G1 X186.303 Y137.973 E0.02303
G1 X186.399 Y138.701 E0.02303
G1 X186.303 Y139.430 E0.02303
G1 X186.036 Y140.073 E0.02183
G1 X185.576 Y140.690 E0.02414
G1 X184.992 Y141.138 E0.02307
G1 X184.313 Y141.419 E0.02303
G1 X183.585 Y141.515 E0.02303
G1 X182.857 Y141.419 E0.02303
G1 X182.178 Y141.138 E0.02303
G1 X181.596 Y140.691 E0.02303
G1 X181.148 Y140.108 E0.02303
G1 X180.867 Y139.430 E0.02303
G1 X180.771 Y138.701 E0.02303
G1 X180.867 Y137.973 E0.02303
G1 X181.134 Y137.330 E0.02183
G1 X181.594 Y136.713 E0.02414
G1 X182.178 Y136.265 E0.02307
G1 X182.857 Y135.984 E0.02303
G1 X183.547 Y135.893 E0.02183
G1 X184.312 Y135.983 E0.02414
G1 X184.936 Y136.242 E0.02119
G1 X185.338 Y136.064 F10800.000
G1 F8640.000
G1 X185.574 Y136.712 E-0.18301
G1 X186.022 Y137.295 E-0.16959
G1 X186.303 Y137.973 E-0.16959
G1 X186.399 Y138.701 E-0.16959
G1 X186.360 Y138.994 E-0.06821
G1 E-0.04000 F2100.00000
G1 Z0.800 F10800.000
G1 X182.650 Y135.661
G1 Z0.200
G1 E0.80000 F2100.00000
G1 F1200.000
G1 X181.988 Y135.935 E0.02245
G1 X181.323 Y136.445 E0.02627
G1 X180.803 Y137.142 E0.02726
G1 X180.500 Y137.875 E0.02486
G1 X180.391 Y138.701 E0.02614
G1 X180.500 Y139.528 E0.02614
G1 X180.819 Y140.298 E0.02614
G1 X181.327 Y140.960 E0.02614
G1 X181.988 Y141.467 E0.02614
G1 X182.758 Y141.786 E0.02614
G1 X183.585 Y141.895 E0.02614
G1 X183.804 Y141.866 E0.00693
G1 X180.330 Y143.986 E0.12759
G1 X179.899 Y144.273 E0.01626
G1 X180.159 Y143.280 E0.03218
G1 X180.377 Y141.427 E0.05851
G1 X180.377 Y139.566 E0.05837
G1 X180.159 Y137.717 E0.05836
G1 X179.715 Y135.858 E0.05993
G1 X179.368 Y135.189 E0.02362
G1 X182.590 Y135.653 E0.10206
G1 F8640.000
G1 X181.988 Y135.935 E-0.15360
G1 X181.323 Y136.445 E-0.19344
G1 X180.803 Y137.142 E-0.20074
G1 X180.500 Y137.875 E-0.18311
G1 X180.484 Y138.000 E-0.02912
G1 E-0.04000 F2100.00000
G1 Z0.800 F10800.000
G1 X177.224 Y150.246
G1 Z0.200
G1 E0.80000 F2100.00000
G1 F1200.000
G1 X177.121 Y150.453 E0.00725
G1 X176.077 Y152.101 E0.06117
G1 X174.868 Y153.632 E0.06117
G1 X173.507 Y155.030 E0.06117
G1 X172.008 Y156.279 E0.06117
G1 X170.387 Y157.365 E0.06117
G1 X168.663 Y158.278 E0.06117
G1 X166.853 Y159.007 E0.06117
G1 X164.977 Y159.544 E0.06117
G1 X163.056 Y159.883 E0.06117
G1 X161.110 Y160.022 E0.06117
G1 X159.160 Y159.958 E0.06117
G1 X157.227 Y159.692 E0.06117
G1 X155.332 Y159.227 E0.06117
G1 X153.496 Y158.568 E0.06117
G1 X151.738 Y157.722 E0.06117
G1 X150.077 Y156.698 E0.06117
G1 X148.531 Y155.507 E0.06117
G1 X147.219 Y154.260 E0.05678
G1 X148.321 Y153.277 E0.04629
G1 X148.666 Y152.931 E0.01531
G1 X149.128 Y152.411 E0.02182
G1 X149.331 Y152.655 E0.00994
G1 X150.058 Y153.406 E0.03276
G1 X151.649 Y154.685 E0.06401
G1 X153.370 Y155.777 E0.06390
G1 X155.202 Y156.669 E0.06390
G1 X157.122 Y157.352 E0.06390
G1 X159.107 Y157.816 E0.06390
G1 X161.131 Y158.056 E0.06390
G1 X163.169 Y158.068 E0.06390
G1 X165.195 Y157.853 E0.06390
G1 X167.185 Y157.413 E0.06390
G1 X169.114 Y156.754 E0.06390
G1 X170.956 Y155.883 E0.06390
G1 X172.691 Y154.812 E0.06390
G1 X174.294 Y153.555 E0.06390
G1 X175.748 Y152.126 E0.06390
G1 X177.033 Y150.544 E0.06390
G1 X177.192 Y150.296 E0.00923
G1 F8640.000
G1 X177.121 Y150.453 E-0.03961
G1 X176.077 Y152.101 E-0.45051
G1 X175.353 Y153.018 E-0.26988
G1 E-0.04000 F2100.00000
G1 Z0.800 F10800.000
G1 X121.741 Y95.516
G1 Z0.200
G1 E0.80000 F2100.00000
G1 F1200.000
G1 X111.664 Y104.460 E0.42247
G1 X83.933 Y73.218 E1.30980
G1 X94.011 Y64.273 E0.42247
G1 X121.701 Y95.471 E1.30792
G1 X121.209 Y95.484 F10800.000
G1 F1200.000
G1 X111.696 Y103.928 E0.39883
G1 X84.466 Y73.249 E1.28615
G1 X93.979 Y64.805 E0.39883
G1 X121.169 Y95.439 E1.28427
G1 X121.503 Y95.755 F10800.000
G1 F8640.000
G1 X118.718 Y97.636 E-0.76000
G1 E-0.04000 F2100.00000
G1 Z0.800 F10800.000
G1 X81.447 Y70.175
G1 Z0.200
G1 E0.80000 F2100.00000
G1 F1200.000
G1 X94.248 Y58.813 E0.53666
G1 X104.583 Y58.813 E0.32405
M73 Q0 S168
G1 X106.242 Y58.903 E0.05208
G1 X107.860 Y59.169 E0.05141
G1 X109.439 Y59.608 E0.05141
G1 X110.962 Y60.216 E0.05141
G1 X112.410 Y60.985 E0.05141
G1 X113.784 Y61.918 E0.05208
M73 P0 R162
G1 X116.323 Y63.852 E0.10007
G1 X116.216 Y63.992 E0.00551
G1 X115.023 Y63.083 E0.04703
G1 X112.754 Y66.062 E0.11740
G1 X113.947 Y66.971 E0.04703
G1 X112.129 Y69.357 E0.09406
G1 X133.912 Y85.951 E0.85859
G1 X110.118 Y107.070 E0.99752
G1 X141.699 Y142.650 E1.49165
G1 X165.575 Y121.459 E1.00096
G1 X134.365 Y86.296 E1.47413
G1 X142.790 Y92.714 E0.33208
G1 X144.608 Y90.328 E0.09406
G1 X145.801 Y91.237 E0.04703
G1 X148.070 Y88.259 E0.11740
G1 X146.877 Y87.350 E0.04703
G1 X146.984 Y87.210 E0.00551
G1 X158.485 Y95.972 E0.45334
G1 X159.955 Y96.945 E0.05526
G1 X161.562 Y97.729 E0.05608
G1 X163.259 Y98.295 E0.05608
G1 X165.015 Y98.633 E0.05608
G1 X166.230 Y98.704 E0.03816
G1 X179.287 Y135.032 E1.21038
G1 X178.864 Y134.216 E0.02884
G1 X177.857 Y132.725 E0.05641
G1 X176.683 Y131.361 E0.05641
G1 X175.359 Y130.143 E0.05641
G1 X173.903 Y129.087 E0.05641
G1 X172.333 Y128.207 E0.05641
G1 X170.672 Y127.516 E0.05641
G1 X168.942 Y127.022 E0.05641
G1 X167.167 Y126.732 E0.05641
G1 X165.369 Y126.650 E0.05641
G1 X163.575 Y126.777 E0.05641
G1 X161.807 Y127.113 E0.05641
G1 X160.090 Y127.651 E0.05641
G1 X158.379 Y128.415 E0.05878
G1 X142.913 Y142.143 E0.64838
G1 X142.179 Y142.839 E0.03172
G1 X141.713 Y143.355 E0.02181
G1 X141.450 Y143.023 E0.01330
G1 X140.783 Y142.260 E0.03178
G1 X63.948 Y55.694 E3.62913
G1 X64.442 Y56.073 E0.01951
G1 X65.236 Y56.402 E0.02696
G1 X66.089 Y56.514 E0.02696
G1 X66.941 Y56.402 E0.02696
G1 X67.736 Y56.073 E0.02696
G1 X68.418 Y55.549 E0.02696
G1 X68.941 Y54.867 E0.02696
G1 X69.271 Y54.073 E0.02696
G1 X69.383 Y53.220 E0.02696
G1 X69.335 Y52.859 E0.01141
G1 X69.835 Y54.898 E0.06581
G1 X70.604 Y57.147 E0.07454
G1 X71.569 Y59.320 E0.07454
G1 X72.724 Y61.398 E0.07454
G1 X74.058 Y63.365 E0.07454
G1 X75.562 Y65.206 E0.07454
G1 X77.223 Y66.906 E0.07454
G1 X79.029 Y68.452 E0.07454
G1 X81.398 Y70.140 E0.09121
G1 F8640.000
G1 X83.868 Y67.964 E-0.76000
G1 E-0.04000 F2100.00000
G1 Z0.800 F10800.000
G1 X68.149 Y55.280
G1 Z0.200
G1 E0.80000 F2100.00000
G1 F1200.000
G1 X67.546 Y55.743 E0.02385
G1 X66.843 Y56.034 E0.02385
G1 X66.089 Y56.134 E0.02385
G1 X65.335 Y56.034 E0.02385
G1 X64.632 Y55.743 E0.02385
G1 X64.029 Y55.280 E0.02385
G1 X63.566 Y54.677 E0.02385
G1 X63.275 Y53.974 E0.02385
G1 X63.175 Y53.220 E0.02385
G1 X63.275 Y52.466 E0.02385
G1 X63.420 Y52.115 E0.01192
G1 X63.566 Y51.763 E0.01192
G1 X64.029 Y51.160 E0.02385
G1 X64.632 Y50.697 E0.02385
G1 X65.335 Y50.406 E0.02385
G1 X66.051 Y50.312 E0.02264
G1 X66.842 Y50.405 E0.02498
G1 X67.546 Y50.697 E0.02389
G1 X68.149 Y51.160 E0.02385
G1 X68.612 Y51.763 E0.02385
G1 X68.903 Y52.466 E0.02385
G1 X69.002 Y53.220 E0.02385
G1 X68.903 Y53.974 E0.02385
G1 X68.612 Y54.677 E0.02385
G1 X68.186 Y55.233 E0.02197
G1 X68.253 Y55.667 F10800.000
G1 F8640.000
G1 X67.546 Y55.743 E-0.18904
G1 X66.843 Y56.034 E-0.17562
G1 X66.089 Y56.134 E-0.17562
G1 X65.335 Y56.034 E-0.17562
G1 X65.158 Y55.961 E-0.04410
G1 E-0.04000 F2100.00000
G1 Z0.800 F10800.000
G1 X63.376 Y55.049
G1 Z0.200
G1 E0.80000 F2100.00000
G1 F1200.000
G1 X59.694 Y50.901 E0.17391
G1 X58.993 Y50.141 E0.03241
G1 X58.735 Y49.914 E0.01077
G1 X59.069 Y49.956 E0.01057
G1 X59.604 Y49.975 E0.01676
G1 X65.703 Y49.977 E0.19124
G1 X65.236 Y50.038 E0.01476
G1 X64.442 Y50.367 E0.02696
G1 X63.760 Y50.891 E0.02696
G1 X63.236 Y51.573 E0.02696
G1 X62.907 Y52.368 E0.02696
G1 X62.795 Y53.220 E0.02696
G1 X62.907 Y54.073 E0.02696
G1 X63.236 Y54.867 E0.02696
G1 X63.339 Y55.001 E0.00531
G1 F8640.000
G1 X61.153 Y52.541 E-0.76000
G1 E-0.04000 F2100.00000
G1 Z0.800 F10800.000
G1 X81.422 Y69.694
G1 Z0.200
G1 E0.80000 F2100.00000
G1 F1200.000
G1 X94.105 Y58.436 E0.53174
G1 X104.594 Y58.436 E0.32886
G1 X106.283 Y58.528 E0.05304
G1 X107.941 Y58.800 E0.05269
G1 X109.560 Y59.250 E0.05269
G1 X111.121 Y59.873 E0.05269
G1 X112.605 Y60.662 E0.05269
G1 X114.004 Y61.612 E0.05304
G1 X116.851 Y63.781 E0.11221
G1 X116.288 Y64.521 E0.02916
G1 X115.095 Y63.612 E0.04703
G1 X113.283 Y65.990 E0.09375
G1 X114.476 Y66.899 E0.04703
G1 X112.658 Y69.286 E0.09406
G1 X142.719 Y92.186 E1.18488
G1 X144.537 Y89.799 E0.09406
G1 X145.730 Y90.708 E0.04703
G1 X147.542 Y88.330 E0.09375
G1 X146.349 Y87.421 E0.04703
G1 X146.912 Y86.681 E0.02916
G1 X158.704 Y95.664 E0.46478
G1 X160.142 Y96.617 E0.05409
G1 X161.705 Y97.379 E0.05452
G1 X163.355 Y97.929 E0.05452
G1 X165.062 Y98.258 E0.05452
G1 X166.501 Y98.343 E0.04518
G1 X179.620 Y134.845 E1.21618
G1 X183.483 Y135.400 E0.12235
G1 X186.541 Y135.886 E0.09710
G1 X189.800 Y136.490 E0.10391
G1 X190.969 Y136.746 E0.03753
G1 X191.384 Y136.799 E0.01310
G1 X192.094 Y136.832 E0.02230
G1 X192.355 Y136.921 E0.00863
G1 X192.276 Y137.072 E0.00532
G1 X192.077 Y137.219 E0.00776
G1 X191.782 Y137.329 E0.00986
G1 X191.403 Y137.504 E0.01310
G1 X191.056 Y137.713 E0.01270
G1 X189.376 Y138.824 E0.06316
G1 X187.170 Y140.228 E0.08200
G1 X184.712 Y141.754 E0.09071
G1 X180.533 Y144.303 E0.15348
G1 X179.956 Y144.689 E0.02175
G1 X179.658 Y144.963 E0.01272
G1 X179.042 Y146.982 E0.06617
G1 X178.335 Y148.854 E0.06276
G1 X177.450 Y150.638 E0.06242
G1 X176.386 Y152.319 E0.06240
G1 X175.152 Y153.881 E0.06240
G1 X173.763 Y155.307 E0.06240
G1 X172.234 Y156.581 E0.06240
G1 X170.581 Y157.689 E0.06240
G1 X168.822 Y158.620 E0.06240
G1 X166.976 Y159.364 E0.06240
G1 X165.062 Y159.912 E0.06240
G1 X163.102 Y160.258 E0.06240
G1 X161.117 Y160.399 E0.06240
G1 X159.128 Y160.334 E0.06240
G1 X157.156 Y160.063 E0.06240
G1 X155.223 Y159.588 E0.06240
G1 X153.350 Y158.916 E0.06240
G1 X151.557 Y158.053 E0.06240
G1 X149.862 Y157.009 E0.06240
G1 X148.285 Y155.794 E0.06240
G1 X146.837 Y154.417 E0.06267
G1 X146.674 Y154.240 E0.00753
G1 X148.061 Y153.003 E0.05829
G1 X148.391 Y152.673 E0.01463
G1 X148.890 Y152.111 E0.02356
G1 X141.760 Y144.072 E0.33691
G1 X141.477 Y143.665 E0.01556
G1 X141.160 Y143.264 E0.01602
G1 X140.500 Y142.509 E0.03145
G1 X59.414 Y51.154 E3.82992
G1 X58.729 Y50.411 E0.03168
G1 X58.335 Y50.065 E0.01646
G1 X57.926 Y49.778 E0.01566
G1 X57.601 Y49.405 E0.01551
G1 X58.095 Y49.400 E0.01548
G1 X58.580 Y49.515 E0.01564
G1 X59.099 Y49.580 E0.01639
G1 X59.610 Y49.598 E0.01603
G1 X66.065 Y49.600 E0.20239
G1 X66.911 Y49.697 E0.02668
G1 X67.690 Y49.976 E0.02594
G1 X68.385 Y50.425 E0.02594
G1 X68.959 Y51.019 E0.02592
G1 X69.384 Y51.728 E0.02593
G1 X69.647 Y52.547 E0.02696
G1 X70.197 Y54.792 E0.07246
G1 X70.955 Y57.010 E0.07348
G1 X71.907 Y59.151 E0.07348
G1 X73.045 Y61.200 E0.07348
G1 X74.361 Y63.140 E0.07348
G1 X74.664 Y63.511 E0.01504
G1 X75.843 Y64.955 E0.05844
G1 X77.481 Y66.631 E0.07348
G1 X79.262 Y68.155 E0.07348
G1 X81.373 Y69.659 E0.08127
G1 X81.705 Y69.976 F10800.000
G1 F8640.000
G1 X83.842 Y67.482 E-0.76000
G1 E-0.04000 F2100.00000
G1 Z0.800 F10800.000
G1 X79.801 Y69.141
G1 Z0.200
G1 E0.80000 F2100.00000
G1 F1200.000
