; generated by PrusaSlicer 2.2.0+ on 2020-07-15 at 18:40:45 UTC

; 

; external perimeters extrusion width = 0.45mm
; perimeters extrusion width = 0.45mm
; infill extrusion width = 0.45mm
; solid infill extrusion width = 0.45mm
; top infill extrusion width = 0.40mm
; first layer extrusion width = 0.42mm

M73 P0 R26
M73 Q0 S26
M201 X1000 Y1000 Z200 E5000 ; sets maximum accelerations, mm/sec^2
M203 X200 Y200 Z12 E120 ; sets maximum feedrates, mm/sec
M204 P1250 R1250 T1250 ; sets acceleration (P, T) and retract acceleration (R), mm/sec^2
M205 X8.00 Y8.00 Z0.40 E4.50 ; sets the jerk limits, mm/sec
M205 S0 T0 ; sets the minimum extruding and travel feed rate, mm/sec
M107
M862.3 P "MK3" ; printer model check
M862.1 P0.4 ; nozzle diameter check
M115 U3.9.0 ; tell printer latest fw version
G90 ; use absolute coordinates
M83 ; extruder relative mode
M104 S225 ; set extruder temp
M140 S60 ; set bed temp
M190 S60 ; wait for bed temp
M109 S225 ; wait for extruder temp
G28 W ; home all without mesh bed level
G80 ; mesh bed leveling
G1 Y-3.0 F1000.0 ; go outside print area
G92 E0.0
G1 X60.0 E9.0 F1000.0 ; intro line
M73 Q0 S26
M73 P0 R26
G1 X100.0 E12.5 F1000.0 ; intro line
G92 E0.0
M221 S95
G21 ; set units to millimeters
G90 ; use absolute coordinates
M83 ; use relative distances for extrusion
M900 K0.06 ; Filament gcode LA 1.5
M900 K30 ; Filament gcode LA 1.0
;BEFORE_LAYER_CHANGE
G92 E0.0
;0.2


G1 E-0.80000 F2100.00000
G1 Z0.600 F10800.000
;AFTER_LAYER_CHANGE
;0.2
G1 X108.307 Y90.381
G1 Z0.200
G1 E0.80000 F2100.00000
M204 S1000
G1 F1200.000
G1 X109.631 Y89.852 E0.04473
G1 X110.827 Y89.602 E0.03828
G1 X126.614 Y89.164 E0.49520
G1 X145.802 Y89.164 E0.60162
G1 X146.489 Y89.266 E0.02178
G1 X147.120 Y89.565 E0.02190
G1 X147.637 Y90.034 E0.02190
G1 X147.996 Y90.634 E0.02190
G1 X148.171 Y91.395 E0.02449
G1 X148.175 Y93.544 E0.06740
G1 X147.992 Y94.457 E0.02919
G1 X135.206 Y118.619 E0.85711
G1 X134.794 Y119.149 E0.02105
G1 X134.300 Y119.550 E0.01995
G1 X132.857 Y120.148 E0.04897
G1 X131.573 Y120.400 E0.04102
G1 X113.341 Y120.227 E0.57167
G1 X112.754 Y120.147 E0.01858
G1 X112.205 Y119.923 E0.01858
G1 X111.712 Y119.555 E0.01929
G1 X111.332 Y119.076 E0.01917
G1 X102.051 Y103.193 E0.57679
G1 X101.835 Y102.698 E0.01692
G1 X101.732 Y102.084 E0.01953
G1 X101.735 Y99.855 E0.06987
G1 X101.839 Y99.291 E0.01799
G1 X102.075 Y98.768 E0.01799
G1 X107.550 Y91.011 E0.29771
G1 X108.260 Y90.420 E0.02898
G1 F8640.000
G1 X109.631 Y89.852 E-0.34262
G1 X110.827 Y89.602 E-0.28194
G1 X111.413 Y89.585 E-0.13544
G1 E-0.04000 F2100.00000
G1 Z0.800 F10800.000
G1 X127.448 Y92.328
G1 Z0.200
G1 E0.80000 F2100.00000
G1 F1200.000
G1 X145.011 Y92.328 E0.55068
G1 X145.011 Y92.754 E0.01335
G1 X135.590 Y92.754 E0.29541
G1 X135.241 Y92.811 E0.01108
G1 X134.912 Y92.960 E0.01133
G1 X134.686 Y93.148 E0.00920
G1 X134.488 Y93.427 E0.01076
G1 X134.407 Y93.741 E0.01016
G1 X134.411 Y94.809 E0.03348
G1 X134.434 Y95.325 E0.01620
G1 X134.531 Y95.955 E0.02000
G1 X133.976 Y95.879 E0.01755
G1 X133.421 Y95.955 E0.01755
G1 X133.518 Y95.325 E0.02000
G1 X133.541 Y94.809 E0.01620
G1 X133.545 Y93.741 E0.03347
G1 X133.459 Y93.407 E0.01082
G1 X133.259 Y93.142 E0.01043
G1 X133.040 Y92.960 E0.00892
G1 X132.711 Y92.811 E0.01133
G1 X132.362 Y92.754 E0.01108
G1 X127.448 Y92.754 E0.15409
G1 X127.448 Y92.388 E0.01147
G1 F8640.000
G1 X130.739 Y92.376 E-0.76000
G1 E-0.04000 F2100.00000
G1 Z0.800 F10800.000
G1 X134.984 Y100.195
G1 Z0.200
G1 E0.80000 F2100.00000
G1 F1200.000
G1 X135.571 Y100.379 E0.01928
G1 X135.514 Y100.661 E0.00904
G1 X135.458 Y100.735 E0.00288
G1 X135.218 Y100.833 E0.00813
G1 X134.815 Y100.933 E0.01303
G1 X134.698 Y100.415 E0.01663
G1 X134.685 Y96.357 E0.12724
G1 X133.976 Y96.260 E0.02245
G1 X133.267 Y96.357 E0.02245
G1 X133.254 Y100.415 E0.12724
G1 X133.137 Y100.933 E0.01663
G1 X132.736 Y100.833 E0.01296
G1 X132.476 Y100.720 E0.00891
G1 X132.438 Y100.661 E0.00217
G1 X132.381 Y100.379 E0.00904
G1 X132.968 Y100.195 E0.01928
G1 X132.968 Y96.249 E0.12372
G1 X133.073 Y95.786 E0.01488
G1 X133.142 Y95.291 E0.01569
G1 X133.164 Y94.800 E0.01541
G1 X133.168 Y93.788 E0.03171
G1 X133.113 Y93.574 E0.00693
G1 X132.984 Y93.404 E0.00669
G1 X132.838 Y93.282 E0.00595
G1 X132.601 Y93.175 E0.00817
G1 X132.332 Y93.131 E0.00856
G1 X127.071 Y93.131 E0.16494
G1 X127.071 Y91.951 E0.03700
G1 X145.388 Y91.951 E0.57433
G1 X145.388 Y93.131 E0.03700
G1 X135.620 Y93.131 E0.30626
G1 X135.351 Y93.175 E0.00856
G1 X135.114 Y93.282 E0.00817
G1 X134.965 Y93.406 E0.00606
G1 X134.835 Y93.589 E0.00703
G1 X134.784 Y93.788 E0.00645
G1 X134.788 Y94.800 E0.03172
G1 X134.810 Y95.291 E0.01541
G1 X134.879 Y95.786 E0.01569
G1 X134.984 Y96.249 E0.01488
G1 X134.984 Y100.135 E0.12184
G1 X134.907 Y100.587 F10800.000
G1 F8640.000
G1 X135.571 Y100.379 E-0.14669
G1 X135.514 Y100.661 E-0.06654
G1 X135.458 Y100.735 E-0.02121
G1 X135.218 Y100.833 E-0.05990
G1 X134.815 Y100.933 E-0.09599
G1 X134.698 Y100.415 E-0.12250
G1 X134.695 Y99.345 E-0.24716
G1 E-0.04000 F2100.00000
G1 Z0.800 F10800.000
G1 X134.392 Y95.822
G1 Z0.200
G1 E0.80000 F2100.00000
G1 F1200.000
G1 X133.805 Y95.236 E0.02865
G1 X133.824 Y94.668 E0.01961
G1 X134.135 Y94.979 E0.01519
G1 X134.126 Y94.383 E0.02059
G1 X133.827 Y94.083 E0.01464
G1 X133.828 Y93.706 E0.01301
G1 X133.756 Y93.425 E0.01002
G1 X134.124 Y93.793 E0.01798
G1 X134.124 Y93.706 E0.00303
G1 X134.226 Y93.308 E0.01416
G1 X133.529 Y92.610 E0.03407
G1 X134.116 Y92.610 E0.02027
G1 X134.591 Y93.086 E0.02322
G1 X134.948 Y92.712 F10800.000
G1 F1200.000
G1 X135.171 Y92.574 E0.00179
G1 X135.587 Y92.539 E0.00285
G1 F8640.000
G1 X135.171 Y92.574 E-0.09651
G1 X134.948 Y92.712 E-0.06053
G1 E-0.64296 F2100.00000
G1 Z0.800 F10800.000
G1 X133.004 Y92.712
G1 Z0.200
G1 E0.80000 F2100.00000
G1 F1200.000
G1 X132.781 Y92.574 E0.00177
G1 X132.365 Y92.539 E0.00282
G1 F8640.000
G1 X132.781 Y92.574 E-0.09651
G1 X133.004 Y92.712 E-0.06053
G1 E-0.64296 F2100.00000
G1 Z0.800 F10800.000
G1 X131.677 Y109.919
G1 Z0.200
G1 E0.80000 F2100.00000
G1 F1200.000
G1 X131.583 Y110.131 E0.00728
G1 X131.520 Y110.739 E0.01917
G1 X131.508 Y111.259 E0.01629
G1 X131.529 Y111.783 E0.01644
G1 X131.622 Y112.400 E0.01959
G1 X131.326 Y112.303 E0.00975
G1 X130.804 Y112.303 E0.01638
G1 X130.509 Y112.400 E0.00975
G1 X130.602 Y111.783 E0.01959
G1 X130.623 Y111.259 E0.01644
G1 X130.610 Y110.739 E0.01630
G1 X130.546 Y110.131 E0.01918
G1 X130.450 Y109.913 E0.00744
G1 X130.564 Y109.932 E0.00362
G1 X131.325 Y109.949 E0.02385
G1 X131.617 Y109.924 E0.00919
G1 F8640.000
G1 X131.583 Y110.131 E-0.04852
G1 X131.520 Y110.739 E-0.14119
G1 X131.508 Y111.259 E-0.11996
G1 X131.529 Y111.783 E-0.12105
G1 X131.622 Y112.400 E-0.14425
G1 X131.326 Y112.303 E-0.07178
G1 X130.836 Y112.303 E-0.11325
G1 E-0.04000 F2100.00000
G1 Z0.800 F10800.000
G1 X132.079 Y116.654
G1 Z0.200
G1 E0.80000 F2100.00000
G1 F1200.000
G1 X132.660 Y116.837 E0.01910
G1 X132.594 Y117.150 E0.01003
G1 X132.549 Y117.195 E0.00201
G1 X132.309 Y117.292 E0.00812
G1 X131.905 Y117.392 E0.01302
G1 X131.789 Y116.872 E0.01670
G1 X131.775 Y116.409 E0.01453
G1 X131.775 Y112.848 E0.11163
G1 X131.266 Y112.680 E0.01683
G1 X130.865 Y112.680 E0.01257
G1 X130.355 Y112.848 E0.01683
G1 X130.355 Y116.409 E0.11163
G1 X130.341 Y116.872 E0.01453
G1 X130.225 Y117.392 E0.01670
G1 X129.822 Y117.292 E0.01302
G1 X129.582 Y117.195 E0.00812
G1 X129.536 Y117.150 E0.00201
G1 X129.470 Y116.837 E0.01003
G1 X130.051 Y116.654 E0.01910
G1 X130.051 Y112.708 E0.12372
G1 X130.157 Y112.245 E0.01489
G1 X130.226 Y111.749 E0.01571
G1 X130.245 Y111.255 E0.01549
G1 X130.234 Y110.763 E0.01544
G1 X130.178 Y110.229 E0.01684
G1 X130.105 Y110.066 E0.00560
G1 X129.966 Y109.909 E0.00656
G1 X129.662 Y109.800 E0.01014
G1 X129.401 Y109.774 E0.00823
G1 X128.174 Y109.775 E0.03847
G1 X128.102 Y109.754 E0.00235
G1 X128.119 Y109.586 E0.00527
G1 X128.102 Y109.421 E0.00522
G1 X128.182 Y109.398 E0.00260
G1 X129.415 Y109.398 E0.03868
G1 X129.823 Y109.432 E0.01283
G1 X130.598 Y109.555 E0.02461
G1 X131.313 Y109.571 E0.02243
G1 X131.731 Y109.536 E0.01313
G1 X132.518 Y109.406 E0.02502
G1 X133.834 Y109.397 E0.04126
G1 X133.966 Y109.430 E0.00428
G1 X133.951 Y109.585 E0.00489
G1 X133.968 Y109.756 E0.00538
G1 X133.910 Y109.774 E0.00189
G1 X132.730 Y109.773 E0.03702
G1 X132.492 Y109.795 E0.00749
G1 X132.325 Y109.838 E0.00540
G1 X132.157 Y109.917 E0.00582
G1 X132.024 Y110.066 E0.00625
G1 X131.952 Y110.229 E0.00560
G1 X131.896 Y110.763 E0.01684
G1 X131.885 Y111.255 E0.01543
G1 X131.905 Y111.749 E0.01549
G1 X131.973 Y112.245 E0.01571
G1 X132.079 Y112.708 E0.01489
G1 X132.079 Y116.594 E0.12184
G1 X132.002 Y117.046 F10800.000
G1 F8640.000
G1 X132.660 Y116.837 E-0.14540
G1 X132.594 Y117.150 E-0.07386
G1 X132.549 Y117.195 E-0.01477
G1 X132.309 Y117.292 E-0.05978
G1 X131.905 Y117.392 E-0.09591
G1 X131.789 Y116.872 E-0.12298
G1 X131.775 Y116.409 E-0.10703
G1 X131.775 Y115.801 E-0.14027
G1 E-0.04000 F2100.00000
G1 Z0.800 F10800.000
G1 X130.729 Y111.434
G1 Z0.200
G1 E0.80000 F2100.00000
G1 F1200.000
G1 X131.272 Y111.977 E0.02808
G1 X131.247 Y111.809 E0.00621
G1 X131.227 Y111.310 E0.01826
G1 X130.899 Y110.983 E0.01693
G1 X130.893 Y110.721 E0.00958
G1 X130.850 Y110.312 E0.01504
G1 X131.404 Y110.865 E0.02863
G1 F8640.000
G1 X130.850 Y110.312 E-0.18083
G1 X130.893 Y110.721 E-0.09501
G1 X130.899 Y110.983 E-0.06049
G1 X131.227 Y111.310 E-0.10693
G1 X131.247 Y111.809 E-0.11536
G1 X131.272 Y111.977 E-0.03922
G1 X130.775 Y111.481 E-0.16217
G1 E-0.04000 F2100.00000
G1 Z0.800 F10800.000
G1 X131.938 Y109.847
G1 Z0.200
G1 E0.80000 F2100.00000
G1 F1200.000
G1 X132.017 Y109.725 E0.00106
G1 X132.175 Y109.676 E0.00120
G1 F8640.000
G1 X132.017 Y109.725 E-0.03831
G1 X131.938 Y109.847 E-0.03365
G1 E-0.72804 F2100.00000
G1 Z0.800 F10800.000
G1 X130.192 Y109.847
G1 Z0.200
G1 E0.80000 F2100.00000
G1 F1200.000
G1 X130.106 Y109.715 E0.00118
G1 X129.889 Y109.657 E0.00168
G1 F8640.000
G1 X130.106 Y109.715 E-0.05190
G1 X130.192 Y109.847 E-0.03638
G1 E-0.71171 F2100.00000
G1 Z0.800 F10800.000
G1 X117.334 Y114.044
G1 Z0.200
G1 E0.80000 F2100.00000
G1 F1200.000
G1 X117.238 Y114.677 E0.02008
G1 X117.217 Y115.201 E0.01644
G1 X117.229 Y115.720 E0.01629
G1 X117.292 Y116.328 E0.01917
G1 X117.386 Y116.541 E0.00728
G1 X117.042 Y116.512 E0.01082
G1 X116.658 Y116.510 E0.01205
G1 X116.160 Y116.546 E0.01566
G1 X116.256 Y116.329 E0.00745
G1 X116.320 Y115.720 E0.01918
G1 X116.332 Y115.201 E0.01630
G1 X116.311 Y114.677 E0.01644
G1 X116.214 Y114.044 E0.02008
G1 X116.774 Y114.121 E0.01772
G1 X117.275 Y114.052 E0.01584
G1 F8640.000
G1 X117.238 Y114.677 E-0.14456
G1 X117.217 Y115.201 E-0.12105
G1 X117.229 Y115.720 E-0.11996
G1 X117.292 Y116.328 E-0.14119
G1 X117.386 Y116.541 E-0.05359
G1 X117.042 Y116.512 E-0.07968
G1 X116.658 Y116.510 E-0.08873
G1 X116.609 Y116.513 E-0.01124
G1 E-0.04000 F2100.00000
G1 Z0.800 F10800.000
G1 X116.064 Y113.643
G1 Z0.200
G1 E0.80000 F2100.00000
G1 F1200.000
G1 X116.774 Y113.740 E0.02247
G1 X117.484 Y113.643 E0.02247
G1 X117.484 Y110.051 E0.11262
G1 X117.499 Y109.587 E0.01454
G1 X117.615 Y109.068 E0.01669
G1 X118.018 Y109.167 E0.01302
G1 X118.258 Y109.264 E0.00812
G1 X118.303 Y109.310 E0.00201
G1 X118.369 Y109.623 E0.01002
G1 X117.788 Y109.805 E0.01910
G1 X117.788 Y113.751 E0.12372
G1 X117.682 Y114.214 E0.01489
G1 X117.614 Y114.710 E0.01571
G1 X117.594 Y115.204 E0.01549
G1 X117.605 Y115.696 E0.01543
G1 X117.661 Y116.230 E0.01684
G1 X117.733 Y116.394 E0.00560
G1 X117.872 Y116.550 E0.00656
G1 X118.177 Y116.661 E0.01014
G1 X118.438 Y116.687 E0.00825
G1 X119.619 Y116.686 E0.03703
G1 X119.677 Y116.703 E0.00189
G1 X119.660 Y116.874 E0.00538
G1 X119.676 Y117.029 E0.00489
G1 X119.544 Y117.063 E0.00426
G1 X118.227 Y117.053 E0.04130
G1 X117.440 Y116.924 E0.02501
G1 X117.025 Y116.889 E0.01304
G1 X116.666 Y116.887 E0.01126
G1 X116.305 Y116.905 E0.01135
G1 X115.532 Y117.027 E0.02452
G1 X115.125 Y117.062 E0.01283
G1 X113.891 Y117.062 E0.03868
G1 X113.811 Y117.038 E0.00260
G1 X113.828 Y116.873 E0.00522
G1 X113.811 Y116.706 E0.00527
G1 X113.883 Y116.685 E0.00235
G1 X115.110 Y116.685 E0.03847
G1 X115.372 Y116.660 E0.00825
G1 X115.676 Y116.550 E0.01012
G1 X115.815 Y116.394 E0.00655
G1 X115.887 Y116.230 E0.00560
G1 X115.943 Y115.696 E0.01684
G1 X115.955 Y115.204 E0.01544
G1 X115.935 Y114.710 E0.01549
G1 X115.867 Y114.214 E0.01571
G1 X115.760 Y113.751 E0.01489
G1 X115.760 Y109.805 E0.12372
G1 X115.179 Y109.623 E0.01910
G1 X115.246 Y109.309 E0.01004
G1 X115.271 Y109.277 E0.00128
G1 X115.531 Y109.167 E0.00884
G1 X115.934 Y109.068 E0.01302
G1 X116.050 Y109.587 E0.01670
G1 X116.064 Y110.051 E0.01453
G1 X116.064 Y113.583 E0.11074
G1 X116.029 Y114.041 F10800.000
G1 F8640.000
G1 X116.774 Y113.740 E-0.16792
G1 X117.484 Y113.643 E-0.16548
G1 X117.484 Y111.795 E-0.42660
G1 E-0.04000 F2100.00000
G1 Z0.800 F10800.000
G1 X117.112 Y114.994
G1 Z0.200
G1 E0.80000 F2100.00000
G1 F1200.000
G1 X116.561 Y114.444 E0.02899
G1 X116.593 Y114.650 E0.00776
G1 X116.612 Y115.128 E0.01783
G1 X116.940 Y115.456 E0.01726
G1 X116.946 Y115.738 E0.01052
G1 X116.988 Y116.138 E0.01496
G1 X116.436 Y115.586 E0.02909
G1 F8640.000
G1 X116.988 Y116.138 E-0.18030
G1 X116.946 Y115.738 E-0.09276
G1 X116.940 Y115.456 E-0.06521
G1 X116.612 Y115.128 E-0.10703
G1 X116.593 Y114.650 E-0.11051
G1 X116.561 Y114.444 E-0.04809
G1 X117.040 Y114.922 E-0.15610
G1 E-0.04000 F2100.00000
G1 Z0.800 F10800.000
G1 X115.901 Y116.612
G1 Z0.200
G1 E0.80000 F2100.00000
G1 F1200.000
G1 X115.815 Y116.745 E0.00118
G1 X115.598 Y116.803 E0.00168
G1 F8640.000
G1 X115.815 Y116.745 E-0.05185
G1 X115.901 Y116.612 E-0.03639
G1 E-0.71176 F2100.00000
G1 Z0.800 F10800.000
G1 X117.647 Y116.612
G1 Z0.200
G1 E0.80000 F2100.00000
G1 F1200.000
G1 X117.726 Y116.735 E0.00090
G1 X117.900 Y116.785 E0.00112
G1 F8640.000
G1 X117.726 Y116.735 E-0.04191
G1 X117.647 Y116.612 E-0.03371
G1 E-0.72438 F2100.00000
G1 Z0.800 F10800.000
G1 X122.458 Y101.213
G1 Z0.200
G1 E0.80000 F2100.00000
G1 F1200.000
G1 X104.895 Y101.213 E0.55068
G1 X104.895 Y100.787 E0.01335
G1 X109.809 Y100.787 E0.15409
G1 X110.158 Y100.730 E0.01108
G1 X110.487 Y100.581 E0.01133
G1 X110.706 Y100.399 E0.00893
G1 X110.906 Y100.132 E0.01045
G1 X110.992 Y99.782 E0.01132
G1 X110.988 Y98.732 E0.03292
G1 X110.964 Y98.216 E0.01620
G1 X110.868 Y97.585 E0.02000
G1 X111.423 Y97.661 E0.01755
G1 X111.977 Y97.585 E0.01755
G1 X111.881 Y98.216 E0.02000
G1 X111.858 Y98.732 E0.01620
G1 X111.854 Y99.799 E0.03347
G1 X111.939 Y100.134 E0.01082
G1 X112.140 Y100.399 E0.01043
G1 X112.358 Y100.581 E0.00892
G1 X112.688 Y100.730 E0.01133
G1 X113.036 Y100.787 E0.01108
G1 X122.458 Y100.787 E0.29541
G1 X122.458 Y101.153 E0.01147
G1 F8640.000
G1 X119.166 Y101.164 E-0.76000
G1 E-0.04000 F2100.00000
G1 Z0.800 F10800.000
G1 X110.713 Y97.183
G1 Z0.200
G1 E0.80000 F2100.00000
G1 F1200.000
G1 X111.423 Y97.281 E0.02245
G1 X112.132 Y97.183 E0.02245
G1 X112.145 Y93.125 E0.12724
G1 X112.262 Y92.608 E0.01664
G1 X112.665 Y92.708 E0.01303
G1 X112.905 Y92.806 E0.00813
G1 X112.953 Y92.858 E0.00220
G1 X113.018 Y93.162 E0.00976
G1 X112.431 Y93.346 E0.01928
G1 X112.431 Y97.292 E0.12372
G1 X112.325 Y97.755 E0.01488
G1 X112.257 Y98.250 E0.01569
G1 X112.235 Y98.741 E0.01541
G1 X112.231 Y99.752 E0.03171
G1 X112.286 Y99.966 E0.00693
G1 X112.415 Y100.137 E0.00669
G1 X112.560 Y100.258 E0.00595
G1 X112.798 Y100.366 E0.00817
G1 X113.067 Y100.410 E0.00856
G1 X122.835 Y100.410 E0.30626
G1 X122.835 Y101.590 E0.03700
G1 X104.518 Y101.590 E0.57433
G1 X104.518 Y100.410 E0.03700
G1 X109.778 Y100.410 E0.16494
G1 X110.048 Y100.366 E0.00856
G1 X110.285 Y100.258 E0.00817
G1 X110.431 Y100.137 E0.00596
G1 X110.559 Y99.968 E0.00664
G1 X110.615 Y99.737 E0.00743
G1 X110.611 Y98.741 E0.03124
G1 X110.589 Y98.250 E0.01541
G1 X110.520 Y97.755 E0.01569
G1 X110.415 Y97.292 E0.01488
G1 X110.415 Y93.346 E0.12372
G1 X109.828 Y93.162 E0.01928
G1 X109.885 Y92.879 E0.00904
G1 X109.940 Y92.806 E0.00288
G1 X110.180 Y92.708 E0.00813
G1 X110.584 Y92.608 E0.01304
G1 X110.700 Y93.125 E0.01664
G1 X110.713 Y97.123 E0.12535
G1 X110.681 Y97.582 F10800.000
G1 F8640.000
G1 X111.423 Y97.281 E-0.16783
G1 X112.132 Y97.183 E-0.16534
G1 X112.138 Y95.335 E-0.42683
G1 E-0.04000 F2100.00000
G1 Z0.800 F10800.000
G1 X111.756 Y98.474
G1 Z0.200
